X: 21589
T: Killaloe, The
R: polka
M: 2/4
K: Dmajor
F/G/|:AD FD|A/B/A/F/ E F/G/|AD G/F/E/D/|CE E F/G/|
AD FD|A/B/A/F/ E>F|GE cE|(3E/F/E/ DD:|
|:A B/c/ dc|AB c2|EF GF|EF GE|
A B/c/ dc|AB c2|GE cE|(3E/F/E/ DD|
A B/c/ dc|AB c2|EF GF|EF GE|
A B/c/ d c/d/|ed cA|GE cE|(3E/F/E/ DD:|

